X: 48
T: Song of the Young Wolves
C: Teton Sioux band 1911-1914
N: Derived from sioux048.krn
O: South Dakota, U.S.A.
N: Teton Sioux Music by Frances Densmore, 1918
Z: transcribed to **kern format by Craig Sapp
L: 1/8
M: 2/4
Q: 1/4=58
K: Bb clef=bass
%%linebreak <none>
D/ D/ [I:setbarnb 1]| 
D> C D B,/ B,/ | 
G,2G, D/ D/ | 
D> C D B,/ B,/ | 
(F, A,/ G,<) F, G,/ ||  
[M:3/4](3G, G, G,G,2F, G,/ G,/ | 
G,3F,/ F,/ (3(F, D,) D, ||  
[M:2/4]D,2D,3/ D,/ | 
(D,/ C,/) C,/ C,/ (C,/ B,,/) B,,/ B,,/ | 
B,,2B,,3/ B,/ | 
G,2-(3G, B, B, | 
(3(B, G,) G, (3(G, F,) F, | 
(3(F, D,) D, (3(D, C,) C, ||  
[M:3/4]B,,> B,,B,,4 | 
B,,2(3(B,, G,,) G,, (3G,, F,, F,, ||  
[M:2/4]F,,2F,, :|]  



